X: 19710
T: Jenny Lind
R: polka
M: 2/4
K: Dmajor
|:FA GB|Af f2|Ge e2|Fd d2|
FA GB|Af fe/f/|ge e/g/f/e/|1 d2 dA/G/:|2 d2 dB/=c/||
K: Gmaj
|:dg Bc/B/|GA B2|c/B/A/B/ cd|ed dB/c/|
dg Bc/B/|GA B2|c/B/A/B/ cB|1 AG GB/c/:|2 AG G2||

